icons/shield-lock-24.svg

<svg width="24" height="24" viewBox="0 0 24 24" xmlns="http://www.w3.org/2000/svg">
  <path fill-rule="evenodd" clip-rule="evenodd" d="M12.0771 2.56346C12.027 2.5472 11.973 2.5472 11.9229 2.56346L3.67287 5.23914C3.56895 5.27284 3.5 5.36847 3.5 5.47593L3.5 10.5C3.5 15.9613 6.78075 19.9827 11.9305 21.9259C11.9749 21.9426 12.0251 21.9426 12.0695 21.9259C17.2193 19.9827 20.5 15.9613 20.5 10.5V5.47621C20.5 5.3685 20.4308 5.27277 20.3271 5.23914L12.0771 2.56346ZM11.4601 1.13663C11.811 1.02282 12.189 1.02282 12.5399 1.13663L20.7899 3.81231C21.5108 4.04611 22 4.71708 22 5.47621V10.5C22 16.6893 18.2292 21.2049 12.599 23.3293C12.2134 23.4748 11.7866 23.4748 11.401 23.3293C5.7708 21.2049 2.00001 16.6893 2 10.5V5.47593C2 4.71654 2.48947 4.04603 3.21012 3.81231L11.4601 1.13663ZM13 12.2324C13.5978 11.8866 14 11.2403 14 10.5C14 9.39543 13.1046 8.5 12 8.5C10.8954 8.5 10 9.39543 10 10.5C10 11.2403 10.4022 11.8866 11 12.2324V15C11 15.5523 11.4477 16 12 16C12.5523 16 13 15.5523 13 15L13 12.2324Z"/>
</svg>

<svg xmlns="http://www.w3.org/2000/svg" width="24" height="24" viewBox="0 0 24 24"><path fill-rule="evenodd" d="M12.077 2.563a.25.25 0 00-.154 0L3.673 5.24a.249.249 0 00-.173.237V10.5c0 5.461 3.28 9.483 8.43 11.426a.2.2 0 00.14 0c5.15-1.943 8.43-5.965 8.43-11.426V5.476a.25.25 0 00-.173-.237l-8.25-2.676zm-.617-1.426a1.75 1.75 0 011.08 0l8.25 2.675A1.75 1.75 0 0122 5.476V10.5c0 6.19-3.77 10.705-9.401 12.83a1.699 1.699 0 01-1.198 0C5.771 21.204 2 16.69 2 10.5V5.476c0-.76.49-1.43 1.21-1.664l8.25-2.675zM13 12.232A2 2 0 0012 8.5a2 2 0 00-1 3.732V15a1 1 0 102 0v-2.768z"/></svg>
